src/assets/outline/LampCharge.svg

<svg width="24" height="24" viewBox="0 0 24 24"  xmlns="http://www.w3.org/2000/svg">
<path d="M11.9999 13.8499C11.8699 13.8499 11.7399 13.8199 11.6299 13.7499C11.2699 13.5399 11.1499 13.0799 11.3499 12.7299L12.1999 11.2499H11.3599C10.8599 11.2499 10.4499 11.0299 10.2299 10.6599C10.0099 10.2799 10.0299 9.8199 10.2799 9.3799L11.3499 7.5199C11.5599 7.1599 12.0199 7.0399 12.3699 7.2399C12.7299 7.4499 12.8499 7.9099 12.6499 8.2599L11.7999 9.7499H12.6399C13.1399 9.7499 13.5499 9.9699 13.7699 10.3399C13.9899 10.7199 13.9699 11.1799 13.7199 11.6199L12.6499 13.4799C12.5099 13.7199 12.2599 13.8499 11.9999 13.8499Z" />
<path d="M14.7701 19.7503H9.26012C8.82012 19.7503 8.26012 19.7003 7.89012 19.3203C7.53012 18.9503 7.54012 18.4903 7.55012 18.1803V17.2903C5.03012 15.6103 3.37012 12.6903 3.37012 9.91029C3.37012 7.28029 4.55012 4.82029 6.60012 3.17029C8.65012 1.52029 11.3401 0.900291 13.9701 1.48029C16.4701 2.03029 18.6301 3.70029 19.7501 5.95029C21.9201 10.3203 19.8301 15.0503 16.4901 17.3003V18.0503C16.5001 18.3403 16.5101 18.8703 16.1001 19.2903C15.7901 19.5903 15.3501 19.7503 14.7701 19.7503ZM9.04012 18.2403C9.09012 18.2403 9.16012 18.2503 9.25012 18.2503H14.7701C14.8701 18.2503 14.9401 18.2403 14.9801 18.2303C14.9801 18.2003 14.9801 18.1603 14.9801 18.1303V16.8703C14.9801 16.6103 15.1201 16.3603 15.3401 16.2303C18.3001 14.4403 20.2601 10.3503 18.3901 6.60029C17.4701 4.75029 15.6901 3.38029 13.6301 2.93029C11.4501 2.45029 9.22012 2.96029 7.52012 4.33029C5.82012 5.70029 4.85012 7.73029 4.85012 9.91029C4.85012 12.6903 6.77012 15.0903 8.67012 16.2403C8.90012 16.3803 9.03012 16.6203 9.03012 16.8803V18.2303C9.04012 18.2303 9.04012 18.2303 9.04012 18.2403Z" />
<path d="M15.4998 22.7504C15.4298 22.7504 15.3598 22.7404 15.2898 22.7204C13.1298 22.1004 10.8598 22.1004 8.69977 22.7204C8.29977 22.8304 7.88977 22.6004 7.76977 22.2004C7.64977 21.8004 7.88977 21.3904 8.28977 21.2704C10.7098 20.5804 13.2798 20.5804 15.6998 21.2704C16.0998 21.3804 16.3298 21.8004 16.2198 22.2004C16.1298 22.5404 15.8298 22.7504 15.4998 22.7504Z" />
</svg>

<?xml version="1.0" encoding="UTF-8"?>
<svg width="24" height="24" viewBox="0 0 24 24" xmlns="http://www.w3.org/2000/svg">
 <path d="m12 13.85c-0.13 0-0.26-0.03-0.37-0.1-0.36-0.21-0.48-0.67-0.28-1.02l0.85-1.48h-0.84c-0.5 0-0.91-0.22-1.13-0.59-0.22-0.38-0.2-0.84 0.05-1.28l1.07-1.86c0.21-0.36 0.67-0.48 1.02-0.28 0.36 0.21 0.48 0.67 0.28 1.02l-0.85 1.49h0.84c0.5 0 0.91 0.22 1.13 0.59 0.22 0.38 0.2 0.84-0.05 1.28l-1.07 1.86c-0.14 0.24-0.39 0.37-0.65 0.37z"/>
 <path d="m14.77 19.75h-5.51c-0.44 0-1-0.05-1.37-0.43-0.36-0.37-0.35-0.83-0.34-1.14v-0.89c-2.52-1.68-4.18-4.6-4.18-7.38 0-2.63 1.18-5.09 3.23-6.74s4.74-2.27 7.37-1.69c2.5 0.55 4.66 2.22 5.78 4.47 2.17 4.37 0.08 9.1-3.26 11.35v0.75c0.01 0.29 0.02 0.82-0.39 1.24-0.31 0.3-0.75 0.46-1.33 0.46zm-5.73-1.51c0.05 0 0.12 0.01 0.21 0.01h5.52c0.1 0 0.17-0.01 0.21-0.02v-0.1-1.26c0-0.26 0.14-0.51 0.36-0.64 2.96-1.79 4.92-5.88 3.05-9.63-0.92-1.85-2.7-3.22-4.76-3.67-2.18-0.48-4.41 0.03-6.11 1.4s-2.67 3.4-2.67 5.58c0 2.78 1.92 5.18 3.82 6.33 0.23 0.14 0.36 0.38 0.36 0.64v1.35c0.01 0 0.01 0 0.01 0.01z"/>
 <path d="m15.5 22.75c-0.07 0-0.14-0.01-0.21-0.03-2.16-0.62-4.43-0.62-6.59 0-0.4 0.11-0.81-0.12-0.93-0.52s0.12-0.81 0.52-0.93c2.42-0.69 4.99-0.69 7.41 0 0.4 0.11 0.63 0.53 0.52 0.93-0.09 0.34-0.39 0.55-0.72 0.55z"/>
</svg>
